icons/square/48/gnormalize.svg

<svg width="48" height="48" version="1.1" viewBox="0 0 48 48.000001" xmlns="http://www.w3.org/2000/svg">
 <g transform="translate(0 3.949e-5)">
  <path d="m1 43v0.25c0 2.216 1.784 4 4 4h38c2.216 0 4-1.784 4-4v-0.25c0 2.216-1.784 4-4 4h-38c-2.216 0-4-1.784-4-4zm0 0.5v0.5c0 2.216 1.784 4 4 4h38c2.216 0 4-1.784 4-4v-0.5c0 2.216-1.784 4-4 4h-38c-2.216 0-4-1.784-4-4z" style="opacity:.02"/>
  <path d="m1 43.25v0.25c0 2.216 1.784 4 4 4h38c2.216 0 4-1.784 4-4v-0.25c0 2.216-1.784 4-4 4h-38c-2.216 0-4-1.784-4-4z" style="opacity:.05"/>
  <path d="m1 43v0.25c0 2.216 1.784 4 4 4h38c2.216 0 4-1.784 4-4v-0.25c0 2.216-1.784 4-4 4h-38c-2.216 0-4-1.784-4-4z" style="opacity:.1"/>
 </g>
 <path d="m5 1c-2.216 0-4 1.784-4 4v21.002h20v-25.002h-16z" style="fill-rule:evenodd;fill:#318631"/>
 <path d="m21 1v25.002h26v-21.002c0-2.216-1.784-4-4-4h-22z" style="fill-rule:evenodd;fill:#fbb909"/>
 <path d="m21 26.002v20.998h22c2.216 0 4-1.784 4-4v-16.998h-26z" style="fill-rule:evenodd;fill:#318631"/>
 <path d="m1 26v17c0 2.216 1.784 4 4 4h16v-21h-20z" style="fill-rule:evenodd;fill:#1a3d9b"/>
 <g transform="translate(0 3.949e-5)">
  <g transform="translate(0 -1004.4)">
   <path d="m1 1043.4v4c0 2.216 1.784 4 4 4h38c2.216 0 4-1.784 4-4v-4c0 2.216-1.784 4-4 4h-38c-2.216 0-4-1.784-4-4z" style="opacity:.1"/>
  </g>
 </g>
</svg>

<svg width="48" height="48" viewBox="0 0 48 48.000001" xmlns="http://www.w3.org/2000/svg">
  <path d="M1 43v.25c0 2.216 1.784 4 4 4h38c2.216 0 4-1.784 4-4V43c0 2.216-1.784 4-4 4H5c-2.216 0-4-1.784-4-4zm0 .5v.5c0 2.216 1.784 4 4 4h38c2.216 0 4-1.784 4-4v-.5c0 2.216-1.784 4-4 4H5c-2.216 0-4-1.784-4-4z" opacity=".02"/>
  <path d="M1 43.25v.25c0 2.216 1.784 4 4 4h38c2.216 0 4-1.784 4-4v-.25c0 2.216-1.784 4-4 4H5c-2.216 0-4-1.784-4-4z" opacity=".05"/>
  <path d="M1 43v.25c0 2.216 1.784 4 4 4h38c2.216 0 4-1.784 4-4V43c0 2.216-1.784 4-4 4H5c-2.216 0-4-1.784-4-4z" opacity=".1"/>
  <path d="M5 1C2.784 1 1 2.784 1 5v21.002h20V1H5z" fill-rule="evenodd" fill="#318631"/>
  <path d="M21 1v25.002h26V5c0-2.216-1.784-4-4-4H21z" fill-rule="evenodd" fill="#fbb909"/>
  <path d="M21 26.002V47h22c2.216 0 4-1.784 4-4V26.002H21z" fill-rule="evenodd" fill="#318631"/>
  <path d="M1 26v17c0 2.216 1.784 4 4 4h16V26H1z" fill-rule="evenodd" fill="#1a3d9b"/>
  <g>
    <path d="M1 39v4c0 2.216 1.784 4 4 4h38c2.216 0 4-1.784 4-4v-4c0 2.216-1.784 4-4 4H5c-2.216 0-4-1.784-4-4z" opacity=".1"/>
  </g>
</svg>
